img/q3.svg

<svg width="732" height="93" viewBox="0 0 732 93" fill="none" xmlns="http://www.w3.org/2000/svg">
<g clip-path="url(#clip0)">
<path fill-rule="evenodd" clip-rule="evenodd" d="M182.78 40.52V78H177.78V45.24H160.55V78H155.55V40.52H182.78ZM205.11 50.52C206.906 50.4945 208.686 50.8452 210.338 51.5496C211.99 52.254 213.476 53.2965 214.7 54.61C217.25 57.3154 218.67 60.8925 218.67 64.61C218.67 68.3276 217.25 71.9047 214.7 74.61C213.476 75.9248 211.991 76.9689 210.339 77.675C208.687 78.3811 206.906 78.7337 205.11 78.71C203.107 78.7973 201.117 78.353 199.341 77.4221C197.565 76.4912 196.068 75.107 195 73.41V88.72H190.34V51.23H195V55.84C196.068 54.1415 197.568 52.7563 199.345 51.8254C201.123 50.8944 203.115 50.4509 205.12 50.54L205.11 50.52ZM204.52 74.19C205.775 74.2191 207.021 73.989 208.183 73.514C209.344 73.0391 210.395 72.3297 211.27 71.43C213.022 69.5878 214 67.1425 214 64.6C214 62.0575 213.022 59.6122 211.27 57.77C209.456 56.0064 207.025 55.0198 204.495 55.0198C201.965 55.0198 199.534 56.0064 197.72 57.77C195.968 59.6122 194.991 62.0575 194.991 64.6C194.991 67.1425 195.968 69.5878 197.72 71.43C198.603 72.333 199.662 73.0442 200.832 73.5191C202.002 73.994 203.258 74.2224 204.52 74.19ZM246.83 74.62C244.155 77.2294 240.567 78.69 236.83 78.69C233.093 78.69 229.505 77.2294 226.83 74.62C224.211 71.9503 222.744 68.3598 222.744 64.62C222.744 60.8803 224.211 57.2897 226.83 54.62C228.805 52.639 231.324 51.2891 234.067 50.7417C236.81 50.1943 239.654 50.4739 242.238 51.5452C244.822 52.6165 247.029 54.4312 248.58 56.759C250.132 59.0867 250.956 61.8228 250.95 64.62C250.988 66.4806 250.642 68.329 249.933 70.0496C249.224 71.7702 248.168 73.3261 246.83 74.62ZM236.83 74.14C238.085 74.1591 239.332 73.925 240.494 73.4515C241.657 72.9781 242.712 72.2751 243.597 71.3846C244.482 70.4941 245.179 69.4343 245.645 68.2686C246.111 67.1029 246.337 65.8552 246.31 64.6C246.337 63.3453 246.111 62.0981 245.645 60.9329C245.178 59.7677 244.482 58.7086 243.597 57.8188C242.712 56.9291 241.656 56.2271 240.494 55.7548C239.331 55.2824 238.085 55.0496 236.83 55.07C235.588 55.0442 234.353 55.273 233.202 55.7426C232.052 56.2121 231.01 56.9123 230.14 57.8C228.387 59.6299 227.409 62.066 227.409 64.6C227.409 67.134 228.387 69.5701 230.14 71.4C231.008 72.291 232.049 72.994 233.2 73.4654C234.351 73.9367 235.587 74.1664 236.83 74.14ZM274.32 64.23C275.588 64.6783 276.676 65.5261 277.421 66.646C278.166 67.7659 278.527 69.0973 278.45 70.44C278.484 71.452 278.304 72.4597 277.921 73.3971C277.539 74.3346 276.962 75.1807 276.23 75.88C274.466 77.394 272.179 78.1552 269.86 78H256.47V51.23H268.79C271.039 51.0815 273.26 51.7968 275 53.23C275.726 53.8992 276.299 54.7176 276.678 55.629C277.058 56.5404 277.236 57.5233 277.2 58.51C277.269 59.6365 277.036 60.761 276.526 61.7679C276.017 62.7749 275.248 63.6281 274.3 64.24L274.32 64.23ZM268.59 55.39H261V62.39H268.55C271.27 62.39 272.62 61.19 272.62 58.8C272.62 56.41 271.27 55.37 268.55 55.37L268.59 55.39ZM269.59 73.76C270.721 73.8234 271.835 73.4673 272.72 72.76C273.094 72.4147 273.387 71.9907 273.577 71.5186C273.767 71.0465 273.85 70.5381 273.82 70.03C273.848 69.5414 273.763 69.0529 273.572 68.6022C273.382 68.1514 273.09 67.7504 272.72 67.43C271.825 66.7475 270.713 66.4134 269.59 66.49H261V73.72L269.59 73.76ZM286.73 66.76C287.076 68.9663 288.244 70.9598 290 72.34C291.849 73.7053 294.103 74.4097 296.4 74.34C299.94 74.34 302.51 73.03 304.11 70.43L308.11 72.68C305.497 76.68 301.57 78.68 296.33 78.68C294.42 78.7566 292.515 78.4411 290.731 77.7532C288.948 77.0653 287.324 76.0194 285.96 74.68C284.639 73.3585 283.603 71.7807 282.915 70.0438C282.227 68.3068 281.902 66.4474 281.96 64.58C281.907 62.7255 282.225 60.8791 282.897 59.1497C283.568 57.4202 284.579 55.8426 285.87 54.51C287.188 53.1791 288.768 52.1363 290.51 51.4478C292.252 50.7592 294.118 50.4399 295.99 50.51C297.8 50.4522 299.6 50.7942 301.263 51.5115C302.926 52.2288 304.41 53.3038 305.61 54.66C308.081 57.3962 309.412 60.974 309.33 64.66C309.33 65.3597 309.276 66.0584 309.17 66.75L286.73 66.76ZM296 54.93C293.761 54.8168 291.561 55.555 289.844 56.9962C288.126 58.4374 287.017 60.4751 286.74 62.7H304.63C304.389 60.4629 303.319 58.3971 301.63 56.91C300.053 55.5919 298.055 54.8824 296 54.91V54.93ZM329.48 50.54C331.274 50.514 333.054 50.8645 334.704 51.569C336.354 52.2735 337.838 53.3163 339.06 54.63C341.617 57.3319 343.041 60.9104 343.041 64.63C343.041 68.3497 341.617 71.9281 339.06 74.63C337.838 75.945 336.355 76.9894 334.705 77.6956C333.055 78.4018 331.275 78.7542 329.48 78.73C327.474 78.8178 325.481 78.3738 323.702 77.4431C321.923 76.5123 320.422 75.1279 319.35 73.43V88.72H314.7V51.23H319.35V55.84C320.422 54.1422 321.923 52.7577 323.702 51.827C325.481 50.8962 327.474 50.4522 329.48 50.54ZM328.89 74.21C330.145 74.2391 331.391 74.009 332.553 73.5341C333.714 73.0591 334.765 72.3497 335.64 71.45C337.392 69.6078 338.37 67.1625 338.37 64.62C338.37 62.0775 337.392 59.6322 335.64 57.79C333.826 56.0264 331.395 55.0398 328.865 55.0398C326.335 55.0398 323.904 56.0264 322.09 57.79C320.331 59.6287 319.349 62.0753 319.349 64.62C319.349 67.1647 320.331 69.6113 322.09 71.45C322.972 72.3535 324.032 73.065 325.202 73.5399C326.372 74.0149 327.628 74.243 328.89 74.21ZM371.24 78H365.46L353.25 65.32V78H348.59V51.23H353.25V63.07L364.81 51.23H370.81L358.01 64.23L371.24 78ZM395.29 51.22H400V78H395.34V73.4C394.271 75.0978 392.771 76.4824 390.994 77.4133C389.217 78.3441 387.225 78.7881 385.22 78.7C383.424 78.7243 381.642 78.372 379.991 77.6659C378.339 76.9597 376.854 75.9153 375.63 74.6C373.08 71.8947 371.66 68.3176 371.66 64.6C371.66 60.8825 373.08 57.3054 375.63 54.6C376.854 53.286 378.34 52.2432 379.992 51.5387C381.643 50.8343 383.425 50.4838 385.22 50.51C387.225 50.422 389.217 50.8659 390.994 51.7968C392.771 52.7276 394.271 54.1122 395.34 55.81V51.23L395.29 51.22ZM385.75 74.22C387.014 74.2532 388.271 74.0252 389.443 73.5503C390.615 73.0754 391.676 72.3638 392.56 71.46C394.312 69.6178 395.29 67.1725 395.29 64.63C395.29 62.0875 394.312 59.6422 392.56 57.8C390.746 56.0364 388.315 55.0498 385.785 55.0498C383.255 55.0498 380.824 56.0364 379.01 57.8C377.258 59.6422 376.281 62.0875 376.281 64.63C376.281 67.1725 377.258 69.6178 379.01 71.46C379.883 72.3589 380.933 73.068 382.092 73.5429C383.252 74.0178 384.497 74.2483 385.75 74.22ZM443.06 78H437.28L425.07 65.32V78H420.41V51.23H425.07V63.07L436.63 51.23H442.63L429.83 64.23L443.06 78ZM467.54 74.63C464.864 77.2371 461.276 78.6961 457.54 78.6961C453.804 78.6961 450.216 77.2371 447.54 74.63C444.921 71.9603 443.454 68.3698 443.454 64.63C443.454 60.8902 444.921 57.2997 447.54 54.63C449.516 52.6504 452.035 51.3019 454.779 50.7553C457.522 50.2087 460.366 50.4885 462.95 51.5594C465.534 52.6303 467.742 54.444 469.294 56.7708C470.847 59.0976 471.673 61.8329 471.67 64.63C471.706 66.4903 471.359 68.3382 470.65 70.0586C469.941 71.7789 468.886 73.335 467.55 74.63H467.54ZM457.54 74.15C458.793 74.1664 460.036 73.9305 461.196 73.4565C462.356 72.9825 463.408 72.28 464.291 71.3908C465.173 70.5016 465.868 69.444 466.333 68.2808C466.799 67.1176 467.026 65.8726 467 64.62C467.027 63.3653 466.801 62.1181 466.335 60.9529C465.868 59.7877 465.172 58.7286 464.287 57.8388C463.402 56.9491 462.346 56.2471 461.184 55.7748C460.021 55.3024 458.775 55.0696 457.52 55.09C456.278 55.0642 455.043 55.293 453.892 55.7626C452.742 56.2321 451.7 56.9323 450.83 57.82C449.072 59.6475 448.091 62.0845 448.091 64.62C448.091 67.1555 449.072 69.5925 450.83 71.42C451.698 72.311 452.739 73.014 453.89 73.4854C455.041 73.9567 456.277 74.1864 457.52 74.16L457.54 74.15ZM495.73 51.22H500.39V78H495.73V66.82H481.83V78H477.18V51.23H481.83V62.37H495.71V51.23L495.73 51.22ZM527.38 51.22V55.72H518.27V78H513.61V55.73H504.46V51.23L527.38 51.22ZM546.23 50.53C548.025 50.5045 549.806 50.8552 551.458 51.5596C553.11 52.264 554.596 53.3065 555.82 54.62C558.37 57.3254 559.79 60.9025 559.79 64.62C559.79 68.3376 558.37 71.9147 555.82 74.62C554.596 75.9348 553.111 76.9789 551.459 77.685C549.807 78.3911 548.026 78.7437 546.23 78.72C544.225 78.8091 542.233 78.3656 540.455 77.4347C538.678 76.5037 537.178 75.1185 536.11 73.42V88.72H531.45V51.23H536.11V55.84C537.178 54.1415 538.678 52.7563 540.455 51.8254C542.233 50.8944 544.225 50.4509 546.23 50.54V50.53ZM545.64 74.2C546.895 74.2291 548.141 73.999 549.303 73.5241C550.464 73.0491 551.515 72.3397 552.39 71.44C554.142 69.5978 555.12 67.1525 555.12 64.61C555.12 62.0675 554.142 59.6222 552.39 57.78C550.576 56.0164 548.145 55.0298 545.615 55.0298C543.085 55.0298 540.654 56.0164 538.84 57.78C537.088 59.6222 536.111 62.0675 536.111 64.61C536.111 67.1525 537.088 69.5978 538.84 71.44C539.723 72.343 540.782 73.0542 541.952 73.5291C543.122 74.004 544.378 74.2324 545.64 74.2ZM587.52 51.2H592.18V78H587.5V73.4C586.432 75.0985 584.932 76.4837 583.155 77.4147C581.377 78.3456 579.385 78.7891 577.38 78.7C575.584 78.7243 573.802 78.372 572.151 77.6659C570.499 76.9597 569.014 75.9153 567.79 74.6C565.24 71.8947 563.82 68.3176 563.82 64.6C563.82 60.8825 565.24 57.3054 567.79 54.6C569.014 53.286 570.5 52.2432 572.152 51.5387C573.803 50.8343 575.585 50.4838 577.38 50.51C579.385 50.4209 581.377 50.8644 583.155 51.7954C584.932 52.7263 586.432 54.1115 587.5 55.81V51.23L587.52 51.2ZM577.99 74.2C579.252 74.2324 580.508 74.004 581.678 73.5291C582.848 73.0542 583.907 72.343 584.79 71.44C586.542 69.5978 587.52 67.1525 587.52 64.61C587.52 62.0675 586.542 59.6222 584.79 57.78C582.976 56.0164 580.545 55.0298 578.015 55.0298C575.485 55.0298 573.054 56.0164 571.24 57.78C569.488 59.6222 568.511 62.0675 568.511 64.61C568.511 67.1525 569.488 69.5978 571.24 71.44C572.115 72.3427 573.167 73.0548 574.331 73.5315C575.494 74.0082 576.743 74.2392 578 74.21L577.99 74.2ZM616.82 51.2V55.7H603.89V78H599.23V51.23L616.82 51.2ZM623.08 66.74C623.437 68.9468 624.616 70.9368 626.38 72.31C628.228 73.6767 630.483 74.3813 632.78 74.31C636.31 74.31 638.88 73 640.49 70.4L644.49 72.65C641.89 76.65 637.963 78.65 632.71 78.65C630.802 78.7252 628.898 78.4091 627.116 77.7212C625.335 77.0333 623.713 75.9881 622.35 74.65C621.029 73.3285 619.993 71.7507 619.305 70.0138C618.617 68.2768 618.292 66.4174 618.35 64.55C618.294 62.6952 618.612 60.8482 619.284 59.1184C619.955 57.3886 620.967 55.8113 622.26 54.48C623.577 53.1481 625.157 52.1047 626.9 51.4161C628.642 50.7274 630.508 50.4087 632.38 50.48C634.189 50.4223 635.987 50.7644 637.649 51.4817C639.31 52.199 640.792 53.274 641.99 54.63C644.461 57.3662 645.792 60.944 645.71 64.63C645.71 65.3297 645.656 66.0284 645.55 66.72L623.08 66.74ZM632.35 54.9C630.11 54.789 627.911 55.5276 626.192 56.9682C624.474 58.4089 623.362 60.4452 623.08 62.67H641C640.769 60.43 639.697 58.361 638 56.88C636.427 55.5618 634.432 54.8522 632.38 54.88L632.35 54.9ZM669.57 51.2H674.23V78H669.57V66.82H655.68V78H651V51.23H655.66V62.37H669.53V51.23L669.57 51.2ZM701.22 51.2V55.7H692.12V78H687.46V55.73H678.3V51.23L701.22 51.2ZM726.39 51.2H731V78H726.34V73.4C725.272 75.0985 723.772 76.4837 721.995 77.4147C720.217 78.3456 718.225 78.7891 716.22 78.7C714.424 78.7237 712.643 78.3711 710.991 77.665C709.339 76.9589 707.854 75.9148 706.63 74.6C704.08 71.8947 702.66 68.3176 702.66 64.6C702.66 60.8825 704.08 57.3054 706.63 54.6C707.854 53.2865 709.34 52.244 710.992 51.5396C712.644 50.8352 714.425 50.4844 716.22 50.51C718.225 50.4209 720.217 50.8644 721.995 51.7954C723.772 52.7263 725.272 54.1115 726.34 55.81V51.23L726.39 51.2ZM716.86 74.2C718.122 74.2324 719.378 74.004 720.548 73.5291C721.718 73.0542 722.777 72.343 723.66 71.44C725.412 69.5978 726.39 67.1525 726.39 64.61C726.39 62.0675 725.412 59.6222 723.66 57.78C721.846 56.0164 719.415 55.0298 716.885 55.0298C714.355 55.0298 711.924 56.0164 710.11 57.78C708.358 59.6222 707.381 62.0675 707.381 64.61C707.381 67.1525 708.358 69.5978 710.11 71.44C710.982 72.339 712.029 73.0489 713.187 73.5254C714.345 74.002 715.588 74.235 716.84 74.21L716.86 74.2Z" fill="white"/>
<path fill-rule="evenodd" clip-rule="evenodd" d="M7.79 26.54H138.18V85C138.18 87.066 137.359 89.0474 135.898 90.5083C134.437 91.9692 132.456 92.79 130.39 92.79H7.79C5.72396 92.79 3.74255 91.9692 2.28164 90.5083C0.82073 89.0474 0 87.066 0 85L0 34.33C0 32.2639 0.82073 30.2825 2.28164 28.8216C3.74255 27.3607 5.72396 26.54 7.79 26.54V26.54Z" fill="#E31724"/>
<path fill-rule="evenodd" clip-rule="evenodd" d="M154.38 19.48C157 16 158.26 10 156.22 0C130.48 4 136 17.91 138.46 22.26C142.251 16.3819 146.722 10.9712 151.78 6.14C148.351 11.0938 145.385 16.3527 142.92 21.85C146.39 17.85 150.46 17.64 154.38 19.48V19.48ZM162.48 27.64C151.2 40.36 145.15 33.32 142.9 29.5C146.403 28.3347 150.092 27.8262 153.78 28C150.057 26.8504 146.162 26.3597 142.27 26.55C143.64 23.26 149.28 13.55 162.48 27.64Z" fill="#85BC22"/>
<path fill-rule="evenodd" clip-rule="evenodd" d="M78.76 41.08H82.15V44.47H78.76V41.08ZM30.21 62.32L38.63 41.08H44.23L31.29 71.57C29.39 76.04 26.9 78.02 22.29 78.2C19.899 78.2364 17.5231 77.8155 15.29 76.96V72.69C19.66 73.97 20.23 74.12 21.79 74.09C23.92 74.09 25.72 72.95 27.79 68.17L15.32 41.08H20.73L30.21 62.32V62.32ZM66.92 78.2H62.25V68.33C60.1972 68.8708 58.0829 69.1431 55.96 69.14C49.41 69.14 45.52 65.76 45.46 59.08V51H50.11V59.27C50.11 63.33 52.11 65.1 55.96 65.1C58.0829 65.1031 60.1972 64.8308 62.25 64.29V51H66.92V78.2ZM85.52 78.2C76.8 78.2 72.58 72.48 72.58 64.51C72.58 57.51 77.09 51.02 84.92 51.02C94.68 51.02 96.53 58.15 96.53 65.9H76.88C76.8751 67.0418 77.1014 68.1729 77.5452 69.2249C77.9891 70.2769 78.6413 71.2283 79.4626 72.0215C80.2839 72.8148 81.2573 73.4336 82.3241 73.8406C83.3909 74.2477 84.5291 74.4346 85.67 74.39C87.1054 74.4508 88.5352 74.1761 89.8458 73.5876C91.1564 72.9991 92.3118 72.1131 93.22 71L96.22 73.13C93.82 76.51 90.2534 78.2 85.52 78.2V78.2ZM84.92 54.69C80.37 54.69 77.56 58.26 77.04 62.23H92.23C92.23 58.16 89.48 54.69 84.92 54.69V54.69ZM122.85 54.78H113.73V78.2H109.08V54.78H100.08V51H122.8V54.76L122.85 54.78ZM87 41.11H90.39V44.5H87V41.11Z" fill="white"/>
</g>
<defs>
<clipPath id="clip0">
<rect width="731.03" height="92.76" fill="white"/>
</clipPath>
</defs>
</svg>

<svg width="732" height="93" viewBox="0 0 732 93" fill="none" xmlns="http://www.w3.org/2000/svg"><g clip-path="url(#a)" fill-rule="evenodd" clip-rule="evenodd"><path d="M182.78 40.52V78h-5V45.24h-17.23V78h-5V40.52h27.23zm22.33 10a12.86 12.86 0 0 1 9.59 4.09 14.58 14.58 0 0 1 0 20 12.867 12.867 0 0 1-9.59 4.1 11.36 11.36 0 0 1-10.11-5.3v15.31h-4.66V51.23H195v4.61a11.36 11.36 0 0 1 10.12-5.3l-.01-.02zm-.59 23.67a9.118 9.118 0 0 0 6.75-2.76 9.912 9.912 0 0 0 0-13.66 9.72 9.72 0 0 0-13.55 0 9.91 9.91 0 0 0 0 13.66 9.183 9.183 0 0 0 6.8 2.76zm42.31.43a14.32 14.32 0 0 1-20 0 14.28 14.28 0 0 1 0-20 14.122 14.122 0 0 1 21.75 2.139 14.115 14.115 0 0 1 2.37 7.861 13.526 13.526 0 0 1-4.12 10zm-10-.48a9.336 9.336 0 0 0 6.767-2.755 9.34 9.34 0 0 0 2.713-6.785 9.334 9.334 0 0 0-2.713-6.781 9.335 9.335 0 0 0-6.767-2.749 9.105 9.105 0 0 0-6.69 2.73 9.83 9.83 0 0 0 0 13.6 9.071 9.071 0 0 0 6.69 2.74zm37.49-9.91a6.211 6.211 0 0 1 4.13 6.21 7.18 7.18 0 0 1-2.22 5.44 8.87 8.87 0 0 1-6.37 2.12h-13.39V51.23h12.32a8.85 8.85 0 0 1 6.21 2 6.83 6.83 0 0 1 2.2 5.28 6.356 6.356 0 0 1-2.9 5.73l.02-.01zm-5.73-8.84H261v7h7.55c2.72 0 4.07-1.2 4.07-3.59 0-2.39-1.35-3.43-4.07-3.43l.04.02zm1 18.37a4.6 4.6 0 0 0 3.13-1 3.436 3.436 0 0 0 1.1-2.73 3.191 3.191 0 0 0-1.1-2.6 4.64 4.64 0 0 0-3.13-.94H261v7.23l8.59.04zm17.14-7a8.839 8.839 0 0 0 3.27 5.58 10.251 10.251 0 0 0 6.4 2c3.54 0 6.11-1.31 7.71-3.91l4 2.25c-2.613 4-6.54 6-11.78 6a14.001 14.001 0 0 1-10.37-4 13.687 13.687 0 0 1-4-10.1 13.896 13.896 0 0 1 3.91-10.07 13.529 13.529 0 0 1 10.12-4 12.32 12.32 0 0 1 9.62 4.15 14.441 14.441 0 0 1 3.72 10c0 .7-.054 1.398-.16 2.09l-22.44.01zM296 54.93a8.88 8.88 0 0 0-9.26 7.77h17.89a8.998 8.998 0 0 0-3-5.79 8.6 8.6 0 0 0-5.63-2v.02zm33.48-4.39a12.831 12.831 0 0 1 9.58 4.09 14.548 14.548 0 0 1 0 20 12.844 12.844 0 0 1-9.58 4.1 11.39 11.39 0 0 1-10.13-5.3v15.29h-4.65V51.23h4.65v4.61a11.393 11.393 0 0 1 10.13-5.3zm-.59 23.67a9.12 9.12 0 0 0 6.75-2.76 9.912 9.912 0 0 0 0-13.66 9.72 9.72 0 0 0-13.55 0 9.88 9.88 0 0 0 0 13.66 9.168 9.168 0 0 0 6.8 2.76zM371.24 78h-5.78l-12.21-12.68V78h-4.66V51.23h4.66v11.84l11.56-11.84h6l-12.8 13L371.24 78zm24.05-26.78H400V78h-4.66v-4.6a11.372 11.372 0 0 1-10.12 5.3 12.858 12.858 0 0 1-9.59-4.1 14.579 14.579 0 0 1 0-20 12.85 12.85 0 0 1 9.59-4.09 11.368 11.368 0 0 1 10.12 5.3v-4.58l-.05-.01zm-9.54 23a9.19 9.19 0 0 0 6.81-2.76 9.912 9.912 0 0 0 0-13.66 9.72 9.72 0 0 0-13.55 0 9.91 9.91 0 0 0 0 13.66 9.114 9.114 0 0 0 6.74 2.76zM443.06 78h-5.78l-12.21-12.68V78h-4.66V51.23h4.66v11.84l11.56-11.84h6l-12.8 13L443.06 78zm24.48-3.37a14.33 14.33 0 0 1-20 0 14.28 14.28 0 0 1 0-20 14.127 14.127 0 0 1 15.41-3.07 14.127 14.127 0 0 1 8.72 13.07 13.559 13.559 0 0 1-4.12 10h-.01zm-10-.48a9.341 9.341 0 0 0 9.46-9.53 9.334 9.334 0 0 0-2.713-6.781 9.335 9.335 0 0 0-6.767-2.749 9.105 9.105 0 0 0-6.69 2.73 9.808 9.808 0 0 0 0 13.6 9.071 9.071 0 0 0 6.69 2.74l.02-.01zm38.19-22.93h4.66V78h-4.66V66.82h-13.9V78h-4.65V51.23h4.65v11.14h13.88V51.23l.02-.01zm31.65 0v4.5h-9.11V78h-4.66V55.73h-9.15v-4.5l22.92-.01zm18.85-.69a12.864 12.864 0 0 1 9.59 4.09 14.58 14.58 0 0 1 0 20 12.867 12.867 0 0 1-9.59 4.1 11.362 11.362 0 0 1-10.12-5.3v15.3h-4.66V51.23h4.66v4.61a11.36 11.36 0 0 1 10.12-5.3v-.01zm-.59 23.67a9.12 9.12 0 0 0 6.75-2.76 9.912 9.912 0 0 0 0-13.66 9.72 9.72 0 0 0-13.55 0 9.91 9.91 0 0 0 0 13.66 9.183 9.183 0 0 0 6.8 2.76zm41.88-23h4.66V78h-4.68v-4.6a11.36 11.36 0 0 1-10.12 5.3 12.858 12.858 0 0 1-9.59-4.1 14.579 14.579 0 0 1 0-20 12.85 12.85 0 0 1 9.59-4.09 11.36 11.36 0 0 1 10.12 5.3v-4.58l.02-.03zm-9.53 23a9.181 9.181 0 0 0 6.8-2.76 9.912 9.912 0 0 0 0-13.66 9.72 9.72 0 0 0-13.55 0 9.91 9.91 0 0 0 0 13.66 9.116 9.116 0 0 0 6.76 2.77l-.01-.01zm38.83-23v4.5h-12.93V78h-4.66V51.23l17.59-.03zm6.26 15.54a8.85 8.85 0 0 0 3.3 5.57 10.23 10.23 0 0 0 6.4 2c3.53 0 6.1-1.31 7.71-3.91l4 2.25c-2.6 4-6.527 6-11.78 6a14.003 14.003 0 0 1-10.36-4 13.687 13.687 0 0 1-4-10.1 13.846 13.846 0 0 1 .934-5.432 13.843 13.843 0 0 1 2.976-4.638 13.502 13.502 0 0 1 10.12-4 12.304 12.304 0 0 1 9.61 4.15 14.441 14.441 0 0 1 3.72 10c0 .7-.054 1.398-.16 2.09l-22.47.02zm9.27-11.84a8.9 8.9 0 0 0-9.27 7.77H641a8.896 8.896 0 0 0-3-5.79 8.57 8.57 0 0 0-5.62-2l-.03.02zm37.22-3.7h4.66V78h-4.66V66.82h-13.89V78H651V51.23h4.66v11.14h13.87V51.23l.04-.03zm31.65 0v4.5h-9.1V78h-4.66V55.73h-9.16v-4.5l22.92-.03zm25.17 0H731V78h-4.66v-4.6a11.36 11.36 0 0 1-10.12 5.3 12.872 12.872 0 0 1-9.59-4.1 14.579 14.579 0 0 1 0-20 12.853 12.853 0 0 1 9.59-4.09 11.36 11.36 0 0 1 10.12 5.3v-4.58l.05-.03zm-9.53 23a9.181 9.181 0 0 0 6.8-2.76 9.912 9.912 0 0 0 0-13.66 9.72 9.72 0 0 0-13.55 0 9.91 9.91 0 0 0 0 13.66 9.123 9.123 0 0 0 6.73 2.77l.02-.01z" fill="#fff"/><path d="M7.79 26.54h130.39V85a7.79 7.79 0 0 1-7.79 7.79H7.79A7.79 7.79 0 0 1 0 85V34.33a7.79 7.79 0 0 1 7.79-7.79z" fill="#E31724"/><path d="M154.38 19.48C157 16 158.26 10 156.22 0 130.48 4 136 17.91 138.46 22.26a88.993 88.993 0 0 1 13.32-16.12 98.191 98.191 0 0 0-8.86 15.71c3.47-4 7.54-4.21 11.46-2.37zm8.1 8.16c-11.28 12.72-17.33 5.68-19.58 1.86a29.997 29.997 0 0 1 10.88-1.5 33.47 33.47 0 0 0-11.51-1.45c1.37-3.29 7.01-13 20.21 1.09z" fill="#85BC22"/><path d="M78.76 41.08h3.39v3.39h-3.39v-3.39zM30.21 62.32l8.42-21.24h5.6L31.29 71.57c-1.9 4.47-4.39 6.45-9 6.63a18.768 18.768 0 0 1-7-1.24v-4.27c4.37 1.28 4.94 1.43 6.5 1.4 2.13 0 3.93-1.14 6-5.92L15.32 41.08h5.41l9.48 21.24zM66.92 78.2h-4.67v-9.87a24.55 24.55 0 0 1-6.29.81c-6.55 0-10.44-3.38-10.5-10.06V51h4.65v8.27c0 4.06 2 5.83 5.85 5.83a24.55 24.55 0 0 0 6.29-.81V51h4.67v27.2zm18.6 0c-8.72 0-12.94-5.72-12.94-13.69 0-7 4.51-13.49 12.34-13.49 9.76 0 11.61 7.13 11.61 14.88H76.88a8.461 8.461 0 0 0 8.79 8.49A9.24 9.24 0 0 0 93.22 71l3 2.13c-2.4 3.38-5.967 5.07-10.7 5.07zm-.6-23.51c-4.55 0-7.36 3.57-7.88 7.54h15.19c0-4.07-2.75-7.54-7.31-7.54zm37.93.09h-9.12V78.2h-4.65V54.78h-9V51h22.72v3.76l.05.02zM87 41.11h3.39v3.39H87v-3.39z" fill="#fff"/></g><defs><clipPath id="a"><path fill="#fff" d="M0 0h731.03v92.76H0z"/></clipPath></defs></svg>
